app/assets/images/heroicons/micro/bars-3-center-left.svg

<svg width="16" height="16" viewBox="0 0 16 16" fill="none" xmlns="http://www.w3.org/2000/svg">
<path fill-rule="evenodd" clip-rule="evenodd" d="M2 3.75C2 3.33579 2.33579 3 2.75 3H13.25C13.6642 3 14 3.33579 14 3.75C14 4.16421 13.6642 4.5 13.25 4.5H2.75C2.33579 4.5 2 4.16421 2 3.75ZM2 8C2 7.58579 2.33579 7.25 2.75 7.25H7.25C7.66421 7.25 8 7.58579 8 8C8 8.41421 7.66421 8.75 7.25 8.75H2.75C2.33579 8.75 2 8.41421 2 8ZM2 12.25C2 11.8358 2.33579 11.5 2.75 11.5H13.25C13.6642 11.5 14 11.8358 14 12.25C14 12.6642 13.6642 13 13.25 13H2.75C2.33579 13 2 12.6642 2 12.25Z" fill="#0F172A"/>
</svg>

<svg xmlns="http://www.w3.org/2000/svg" viewBox="0 0 16 16" fill="currentColor" aria-hidden="true" data-slot="icon">
  <path fill-rule="evenodd" d="M2 3.75A.75.75 0 0 1 2.75 3h10.5a.75.75 0 0 1 0 1.5H2.75A.75.75 0 0 1 2 3.75ZM2 8a.75.75 0 0 1 .75-.75h4.5a.75.75 0 0 1 0 1.5h-4.5A.75.75 0 0 1 2 8Zm0 4.25a.75.75 0 0 1 .75-.75h10.5a.75.75 0 0 1 0 1.5H2.75a.75.75 0 0 1-.75-.75Z" clip-rule="evenodd"/>
</svg>
